client/src/assets/svg/GithubLogo.svg

<svg width="26" height="26" viewBox="0 0 26 26" fill="none" xmlns="http://www.w3.org/2000/svg">
<g clip-path="url(#clip0_2096_21419)">
<path d="M12.9996 0.676758C6.04541 0.676758 0.40625 6.33704 0.40625 13.3213C0.40625 18.9068 4.01416 23.6461 9.02038 25.3179C9.64966 25.4344 9.87919 25.044 9.87919 24.7085C9.87919 24.4087 9.86822 23.6136 9.86213 22.5582C6.35822 23.3232 5.61925 20.8633 5.61925 20.8633C5.04725 19.4024 4.22175 19.0145 4.22175 19.0145C3.07775 18.2296 4.30788 18.2446 4.30788 18.2446C5.57131 18.3336 6.23634 19.5483 6.23634 19.5483C7.36084 21.4804 9.18491 20.9218 9.90235 20.598C10.0157 19.7815 10.3419 19.2237 10.7014 18.908C7.90563 18.5883 4.966 17.5044 4.966 12.6599C4.966 11.2799 5.45634 10.1509 6.26194 9.2661C6.13153 8.94638 5.69969 7.66141 6.38463 5.92104C6.38463 5.92104 7.4425 5.58141 9.84791 7.21698C10.8526 6.93666 11.9299 6.79651 13.0012 6.79082C14.0701 6.79651 15.1483 6.93626 16.1545 7.21698C18.5579 5.58141 19.6142 5.92104 19.6142 5.92104C20.3007 7.66141 19.8689 8.94638 19.7389 9.2661C20.5465 10.1509 21.034 11.2795 21.034 12.6599C21.034 17.5166 18.0895 18.5851 15.2839 18.8987C15.7361 19.2891 16.1387 20.0602 16.1387 21.2403C16.1387 22.9311 16.1237 24.2937 16.1237 24.7085C16.1237 25.0473 16.3508 25.4409 16.9894 25.3162C21.9891 23.6413 25.5938 18.9052 25.5938 13.3213C25.5938 6.33704 19.9546 0.676758 12.9996 0.676758Z" fill="#081452"/>
<path d="M12.9996 0.676758C6.04541 0.676758 0.40625 6.33704 0.40625 13.3213C0.40625 18.9068 4.01416 23.6461 9.02038 25.3179C9.64966 25.4344 9.87919 25.044 9.87919 24.7085C9.87919 24.4087 9.86822 23.6136 9.86213 22.5582C6.35822 23.3232 5.61925 20.8633 5.61925 20.8633C5.04725 19.4024 4.22175 19.0145 4.22175 19.0145C3.07775 18.2296 4.30788 18.2446 4.30788 18.2446C5.57131 18.3336 6.23634 19.5483 6.23634 19.5483C7.36084 21.4804 9.18491 20.9218 9.90235 20.598C10.0157 19.7815 10.3419 19.2237 10.7014 18.908C7.90563 18.5883 4.966 17.5044 4.966 12.6599C4.966 11.2799 5.45634 10.1509 6.26194 9.2661C6.13153 8.94638 5.69969 7.66141 6.38463 5.92104C6.38463 5.92104 7.4425 5.58141 9.84791 7.21698C10.8526 6.93666 11.9299 6.79651 13.0012 6.79082C14.0701 6.79651 15.1483 6.93626 16.1545 7.21698C18.5579 5.58141 19.6142 5.92104 19.6142 5.92104C20.3007 7.66141 19.8689 8.94638 19.7389 9.2661C20.5465 10.1509 21.034 11.2795 21.034 12.6599C21.034 17.5166 18.0895 18.5851 15.2839 18.8987C15.7361 19.2891 16.1387 20.0602 16.1387 21.2403C16.1387 22.9311 16.1237 24.2937 16.1237 24.7085C16.1237 25.0473 16.3508 25.4409 16.9894 25.3162C21.9891 23.6413 25.5938 18.9052 25.5938 13.3213C25.5938 6.33704 19.9546 0.676758 12.9996 0.676758Z" fill="url(#paint0_linear_2096_21419)"/>
<path d="M19.6192 5.9541C20.2858 7.67579 19.8605 8.94654 19.7309 9.26382C20.5385 10.1486 21.026 11.2772 21.026 12.6576C21.026 17.5144 18.0815 18.5828 15.2759 18.8964C15.7281 19.2868 16.1307 20.0579 16.1307 21.238C16.1307 22.9289 16.1157 24.2914 16.1157 24.7062C16.1157 25.045 16.3428 25.4387 16.9814 25.3139C21.9815 23.639 25.5862 18.9029 25.5862 13.319C25.5862 11.8179 25.3245 10.379 24.8464 9.04323C23.1101 7.2151 21.1775 5.99757 19.6192 5.9541ZM10.1982 19.5732C10.3396 19.288 10.5123 19.0662 10.6938 18.9058C9.16147 18.7303 7.58766 18.3212 6.47656 17.1922C7.33131 18.6149 8.72313 19.262 10.1982 19.5732Z" fill="#081452"/>
<path d="M1.06195 14.1736C1.06195 7.18935 6.70111 1.52907 13.6553 1.52907C17.5167 1.52907 20.9706 3.27554 23.2802 6.0226C20.9991 2.78885 17.2461 0.676758 12.9996 0.676758C6.04542 0.676758 0.406266 6.33704 0.406266 13.3213C0.4015 16.3106 1.45888 19.2044 3.38977 21.4865C1.87264 19.3501 1.05899 16.7939 1.06195 14.1736Z" fill="#081452"/>
<path d="M16.7683 22.0986C16.7683 20.9188 16.3657 20.1465 15.9135 19.7561C18.7191 19.4433 21.664 18.3741 21.664 13.5178C21.664 12.1373 21.1765 11.0092 20.368 10.1243C20.4988 9.80463 20.9315 8.51925 20.2433 6.77929C20.2433 6.77929 20.1125 6.73907 19.8423 6.75451C20.1373 8.06669 19.8212 9.00513 19.7128 9.27163C20.5204 10.1564 21.0079 11.285 21.0079 12.6654C21.0079 17.5222 18.0634 18.5906 15.2578 18.9042C15.71 19.2946 16.1126 20.0657 16.1126 21.2458C16.1126 22.9367 16.0975 24.2992 16.0975 24.714C16.0975 25.0122 16.2751 25.3522 16.7536 25.3441C16.7569 24.7725 16.7683 23.559 16.7683 22.0986Z" fill="#478EC4"/>
<path d="M6.36719 21.9492C6.63171 22.4937 7.52076 23.798 9.86611 23.5233C9.86286 23.2365 9.86042 22.9151 9.85879 22.562C8.0494 22.9569 6.98115 22.4913 6.36719 21.9492Z" fill="#478EC4"/>
<path d="M6.76397 20.2783C6.63635 20.087 6.48752 19.9108 6.32031 19.7529C6.46023 19.9606 6.60891 20.1348 6.76397 20.2783Z" fill="#081452"/>
</g>
<defs>
<linearGradient id="paint0_linear_2096_21419" x1="3.25" y1="4.87256" x2="21.125" y2="22.7476" gradientUnits="userSpaceOnUse">
<stop stop-color="#0A229F"/>
<stop offset="1" stop-color="#0A229F"/>
</linearGradient>
<clipPath id="clip0_2096_21419">
<rect width="26" height="26" fill="white"/>
</clipPath>
</defs>
</svg>

<svg xmlns="http://www.w3.org/2000/svg" xmlns:xlink="http://www.w3.org/1999/xlink" fill="none" height="26" width="26" xmlns:v="https://vecta.io/nano"><linearGradient id="A" gradientUnits="userSpaceOnUse" x1="3.25" x2="21.125" y1="4.873" y2="22.748"><stop offset="0" stop-color="#0a229f"/></linearGradient><clipPath id="B"><path d="M0 0h26v26H0z"/></clipPath><g clip-path="url(#B)"><use xlink:href="#D" fill="#081452"/><use xlink:href="#D" fill="url(#A)"/><g fill="#081452"><path d="M19.62 5.954c.666 1.722.24 2.993.11 3.31.808.885 1.296 2.013 1.296 3.394 0 4.856-2.945 5.925-5.75 6.238.452.39.855 1.162.855 2.342l-.015 3.468c0 .339.227.733.865.608 5-1.675 8.605-6.411 8.605-11.995 0-1.501-.262-2.94-.74-4.276-1.736-1.828-3.669-3.045-5.227-3.089zm-9.422 13.62a2.17 2.17 0 0 1 .496-.668c-1.533-.176-3.106-.585-4.217-1.714.854 1.423 2.246 2.07 3.721 2.381zm-9.136-5.4c0-6.985 5.64-12.645 12.593-12.645 3.862 0 7.316 1.747 9.625 4.494C21 2.789 17.246.677 13 .677 6.045.677.406 6.337.406 13.32a12.61 12.61 0 0 0 2.984 8.166 12.606 12.606 0 0 1-2.328-7.313z"/></g><path d="M16.768 22.099c0-1.18-.402-1.952-.855-2.343 2.806-.313 5.751-1.382 5.751-6.238a4.89 4.89 0 0 0-1.296-3.394c.13-.32.564-1.605-.125-3.345 0 0-.13-.04-.4-.024.294 1.312-.022 2.25-.13 2.517a4.89 4.89 0 0 1 1.295 3.393c0 4.857-2.945 5.926-5.75 6.24.452.39.855 1.16.855 2.34l-.015 3.469c0 .298.177.638.656.63l.014-3.245zm-10.4-.15c.264.545 1.153 1.849 3.498 1.574a123.4 123.4 0 0 1-.007-.961c-1.81.395-2.878-.07-3.492-.613z" fill="#478ec4"/><path d="M6.764 20.278a3.053 3.053 0 0 0-.444-.525c.14.208.289.382.444.525z" fill="#081452"/></g><defs ><path id="D" d="M13 .677C6.045.677.406 6.337.406 13.32A12.64 12.64 0 0 0 9.02 25.318c.63.116.86-.274.86-.61l-.018-2.15c-3.504.765-4.243-1.695-4.243-1.695-.572-1.46-1.397-1.849-1.397-1.849-1.144-.784.086-.77.086-.77 1.263.09 1.928 1.304 1.928 1.304 1.125 1.932 2.949 1.374 3.666 1.05.114-.817.44-1.374.8-1.69-2.796-.32-5.736-1.404-5.736-6.248 0-1.38.49-2.51 1.296-3.394-.13-.32-.562-1.605.123-3.345 0 0 1.057-.34 3.463 1.296A12.06 12.06 0 0 1 13 6.791c1.07.006 2.147.145 3.153.426 2.404-1.636 3.46-1.296 3.46-1.296.687 1.74.255 3.025.125 3.345.808.885 1.295 2.013 1.295 3.394 0 4.857-2.944 5.925-5.75 6.239.452.39.855 1.161.855 2.341l-.015 3.468c0 .34.227.733.865.608 5-1.675 8.605-6.41 8.605-11.995C25.594 6.337 19.954.677 13 .677z"/></defs></svg>
